X:688
T:Reel 688
M:4/4
K:Dmaj
L:1/8
AG|FEDd cBcA|FEDG A2de|fedc dcAF|GEcE D2DG|FEDE FGAF|GBAG FDD2|FEDC dcAF|GBAF D2D|||fedc dcAF|GBAG E2GE|FEDC  (3DCD A,B,|DFED E2de|fedc dcBc|dcAF GEDG|FEDE dcAG|FAEC D2|
